webhook.svg

<svg fill="currentColor" viewBox="0 0 24 24"><path d="M10.46 19C9 21.07 6.15 21.59 4.09 20.15c-2.05-1.44-2.53-4.31-1.09-6.4a4.59 4.59 0 0 1 3.58-1.98l.05 1.43c-.91.07-1.79.54-2.36 1.36-1 1.44-.69 3.38.68 4.35 1.38.96 3.31.59 4.31-.84.31-.45.49-.94.56-1.44v-1.01l5.58-.04.07-.11c.53-.92 1.68-1.24 2.58-.72a1.9 1.9 0 0 1 .68 2.6c-.53.91-1.69 1.23-2.59.71-.41-.23-.7-.6-.83-1.02l-4.07.02a5 5 0 0 1-.78 1.94m7.28-7.14c2.53.31 4.33 2.58 4.02 5.07-.31 2.5-2.61 4.27-5.14 3.96a4.63 4.63 0 0 1-3.43-2.21l1.24-.72a3.22 3.22 0 0 0 2.32 1.45c1.75.21 3.3-.98 3.51-2.65s-1.03-3.2-2.76-3.41c-.54-.06-1.06.01-1.53.18l-.85.44-2.58-4.77h-.22a1.906 1.906 0 0 1-1.85-1.95c.03-1.04.93-1.85 1.98-1.81 1.05.06 1.88.91 1.85 1.95-.02.44-.19.84-.46 1.15l1.9 3.51c.62-.2 1.3-.27 2-.19M8.25 9.14c-1-2.35.06-5.04 2.37-6.02 2.32-.98 5 .13 6 2.48.59 1.37.47 2.87-.2 4.07l-1.24-.72c.42-.81.49-1.8.09-2.73-.68-1.6-2.49-2.37-4.04-1.72-1.56.66-2.26 2.5-1.58 4.1.28.66.75 1.17 1.32 1.51l.39.21-3.07 4.99c.03.05.07.11.1.19.49.91.15 2.06-.77 2.55-.91.49-2.06.13-2.56-.81-.49-.93-.15-2.08.77-2.57.39-.21.82-.26 1.23-.17l2.31-3.77c-.47-.43-.87-.97-1.12-1.59"/></svg>

<svg  viewBox="0 0 24 24" fill="currentColor"><path  d="M10.46,19C9,21.07 6.15,21.59 4.09,20.15C2.04,18.71 1.56,15.84 3,13.75C3.87,12.5 5.21,11.83 6.58,11.77L6.63,13.2C5.72,13.27 4.84,13.74 4.27,14.56C3.27,16 3.58,17.94 4.95,18.91C6.33,19.87 8.26,19.5 9.26,18.07C9.57,17.62 9.75,17.13 9.82,16.63V15.62L15.4,15.58L15.47,15.47C16,14.55 17.15,14.23 18.05,14.75C18.95,15.27 19.26,16.43 18.73,17.35C18.2,18.26 17.04,18.58 16.14,18.06C15.73,17.83 15.44,17.46 15.31,17.04L11.24,17.06C11.13,17.73 10.87,18.38 10.46,19M17.74,11.86C20.27,12.17 22.07,14.44 21.76,16.93C21.45,19.43 19.15,21.2 16.62,20.89C15.13,20.71 13.9,19.86 13.19,18.68L14.43,17.96C14.92,18.73 15.75,19.28 16.75,19.41C18.5,19.62 20.05,18.43 20.26,16.76C20.47,15.09 19.23,13.56 17.5,13.35C16.96,13.29 16.44,13.36 15.97,13.53L15.12,13.97L12.54,9.2H12.32C11.26,9.16 10.44,8.29 10.47,7.25C10.5,6.21 11.4,5.4 12.45,5.44C13.5,5.5 14.33,6.35 14.3,7.39C14.28,7.83 14.11,8.23 13.84,8.54L15.74,12.05C16.36,11.85 17.04,11.78 17.74,11.86M8.25,9.14C7.25,6.79 8.31,4.1 10.62,3.12C12.94,2.14 15.62,3.25 16.62,5.6C17.21,6.97 17.09,8.47 16.42,9.67L15.18,8.95C15.6,8.14 15.67,7.15 15.27,6.22C14.59,4.62 12.78,3.85 11.23,4.5C9.67,5.16 8.97,7 9.65,8.6C9.93,9.26 10.4,9.77 10.97,10.11L11.36,10.32L8.29,15.31C8.32,15.36 8.36,15.42 8.39,15.5C8.88,16.41 8.54,17.56 7.62,18.05C6.71,18.54 5.56,18.18 5.06,17.24C4.57,16.31 4.91,15.16 5.83,14.67C6.22,14.46 6.65,14.41 7.06,14.5L9.37,10.73C8.9,10.3 8.5,9.76 8.25,9.14Z"/></svg>
